X: 22
T: JIG: Battering Ram
C: C: Trad.; S: Various
C: Set Leaders: Mars, Tania, Sophie, Anton
Z: [Unedited]; JACKB at The Session
N: https://thesession.org/members/26966/sets/94272
R: Jig
M: 6/8
L: 1/8
Q: 3/8=116
K: Gmaj
|:dBG BAG|dBG G2g|dBG AGE|GED D2B|
dBG BAG|B/c/dB BAG|A3 BAB|1 GED D2B:|2 GED D2d||
|:deg aga|bge edB|deg a3|bge ega|
bag age|ged e/f/ge|dBG AGE|GED D2d:||
|:B2G A2G|B2D D3|BAG AGE|GED Ddc|
B2G A2G|B/c/dB BAG|AGA BAB|GED D2d:||

